svgs/solid/user-music.svg

<svg xmlns="http://www.w3.org/2000/svg" viewBox="0 0 640 512"><!-- Font Awesome Pro 6.0.0-alpha2 by @fontawesome - https://fontawesome.com License - https://fontawesome.com/license (Commercial License) --><path d="M389.418 347.664C358.834 320.578 318.732 304 274.664 304H173.336C77.609 304 0 381.602 0 477.332C0 496.477 15.523 512 34.664 512H355.193C333.4 493.432 320 468.27 320 440C320 399.045 348.041 364.709 389.418 347.664ZM224 256C294.695 256 352 198.691 352 128S294.695 0 224 0C153.312 0 96 57.309 96 128S153.312 256 224 256ZM601.725 160.631L505.725 179.832C490.768 182.824 480 195.957 480 211.211V372.408C469.945 369.727 459.281 368 448 368C394.98 368 352 400.234 352 440C352 479.764 394.98 512 448 512S544 479.764 544 440V300.176L614.275 286.121C629.232 283.131 640 269.996 640 254.742V192.01C640 171.816 621.525 156.672 601.725 160.631Z"/></svg>

<svg xmlns="http://www.w3.org/2000/svg" viewBox="0 0 640 512"><!--! Font Awesome Pro 6.0.0-alpha3 by @fontawesome - https://fontawesome.com License - https://fontawesome.com/license (Commercial License) --><path d="M389.4 347.7C358.8 320.6 318.7 304 274.7 304H173.3C77.61 304 0 381.7 0 477.4C0 496.5 15.52 512 34.66 512h320.5C333.4 493.4 320 468.3 320 440C320 399 348 364.7 389.4 347.7zM224 256c70.7 0 128-57.31 128-128S294.7 0 224 0C153.3 0 96 57.31 96 128S153.3 256 224 256zM601.7 160.6l-96 19.2C490.8 182.8 480 195.1 480 211.2v161.2C469.9 369.7 459.3 368 448 368c-53.02 0-96 32.23-96 72c0 39.76 42.98 72 96 72s96-32.24 96-72V300.2l70.28-14.05C629.2 283.1 640 269.1 640 254.7V192C640 171.8 621.5 156.7 601.7 160.6z"/></svg>
